icon/lg/asana.svg

<?xml version="1.0" encoding="UTF-8"?>
<svg viewBox="0 0 512 102" version="1.1" xmlns="http://www.w3.org/2000/svg" preserveAspectRatio="xMidYMid" height="1em" width="1em">
  <g>
    <path d="M499.093504,77.033984 L499.09504,77.042176 C499.4048,80.571904 502.227968,85.064192 507.119104,85.064192 L509.981184,85.064192 C511.090176,85.064192 512,84.15488 512,83.044864 L512,20.1056768 L511.9872,20.1056768 C511.929344,19.045376 511.053312,18.1961216 509.981184,18.1961216 L501.113344,18.1961216 C500.041216,18.1961216 499.165184,19.045376 499.106304,20.1056768 L499.09504,20.1056768 L499.09504,25.2198912 C493.662208,18.5227264 485.095936,15.742976 476.506112,15.742976 C456.979968,15.742976 441.152,31.5834368 441.152,51.1248384 C441.152,70.667264 456.979968,86.508032 476.506112,86.508032 L476.506112,86.51008 C485.095936,86.51008 494.456832,83.174912 499.093504,77.033984 Z M476.540416,74.1248 C464.122368,74.1248 454.0544,63.82848 454.0544,51.1248896 C454.0544,38.423552 464.122368,28.126464 476.540416,28.126464 C488.957952,28.126464 499.024384,38.423552 499.024384,51.1248896 C499.024384,63.7014441 489.158274,73.9186329 476.912229,74.121719 L476.540416,74.1248 Z M429.941248,79.206912 L429.937152,46.6385408 L429.938176,46.6385408 C429.938176,28.2799616 418.364928,15.8949888 399.9104,15.8949888 C391.100928,15.8949888 383.879168,20.9930752 381.328896,25.372416 L381.286253,25.1215992 L381.286253,25.1215992 L381.238872,24.870486 C381.230568,24.8286274 381.222058,24.7867701 381.213336,24.7449209 L381.158431,24.4939792 L381.158431,24.4939792 L381.098234,24.2435626 L381.098234,24.2435626 L381.032521,23.9939997 L381.032521,23.9939997 L380.961071,23.745619 C380.911475,23.580499 380.857907,23.4163863 380.800069,23.2537189 L380.710073,23.0108566 C379.730718,20.4733352 377.655564,18.3486976 373.32736,18.3486976 L370.456064,18.3486976 C369.345536,18.3486976 368.438272,19.258624 368.438272,20.368896 L368.438272,83.313152 L368.449536,83.313152 C368.507904,84.371968 369.38496,85.2224 370.457088,85.2224 L379.324928,85.2224 C379.460608,85.2224 379.593728,85.206016 379.72224,85.180928 L379.779982,85.1664213 L379.779982,85.1664213 L379.892736,85.13024 L379.892736,85.13024 L380.025666,85.0916693 C380.047531,85.0847858 380.069035,85.0773333 380.089856,85.0688 L380.166884,85.0328083 L380.166884,85.0328083 L380.422144,84.890112 L380.422144,84.890112 C380.481195,84.852224 380.53706,84.8091022 380.590952,84.7637807 L380.670464,84.694528 C380.683264,84.681216 380.698624,84.673024 380.711424,84.661248 C380.799488,84.575744 380.879872,84.481536 380.951552,84.383744 C381.174272,84.077056 381.308928,83.709952 381.330944,83.313152 L381.342208,83.313152 L381.342208,46.1336576 C381.342208,36.2737664 389.32992,28.2799616 399.18336,28.2799616 C409.035776,28.2799616 417.023488,36.2737664 417.023488,46.1336576 L417.03168,77.210624 L417.033728,77.199872 L417.038336,77.285376 L417.038336,77.285376 L417.038336,83.313152 L417.050112,83.313152 C417.10848,84.371968 417.984512,85.2224 419.05664,85.2224 L427.924992,85.2224 C428.061184,85.2224 428.193792,85.206016 428.322304,85.180928 C428.374528,85.1712 428.423168,85.150208 428.474368,85.135872 L428.620155,85.0938121 C428.644238,85.086208 428.668075,85.078016 428.691456,85.0688 C428.763648,85.038592 428.829696,84.996608 428.898304,84.958208 C428.940288,84.934656 428.98432,84.917248 429.024768,84.890112 C429.106176,84.836864 429.18144,84.77184 429.254656,84.707328 L429.312512,84.6592 L429.312512,84.6592 C429.368491,84.6052693 429.420373,84.5483804 429.46907,84.4892919 L429.5552,84.379648 L429.5552,84.379648 C429.749532,84.1106773 429.876711,83.7927569 429.918755,83.4489008 L429.93152,83.313152 L429.93152,83.313152 L429.943296,83.313152 L429.943296,79.207936 L429.941248,79.206912 Z M337.586688,77.033984 L337.587712,77.042176 C337.897984,80.571904 340.721152,85.064192 345.611776,85.064192 L348.473856,85.064192 C349.58336,85.064192 350.491136,84.15488 350.491136,83.044864 L350.491136,20.1056768 L350.479872,20.1056768 C350.422016,19.045376 349.54496,18.1961216 348.473856,18.1961216 L339.606016,18.1961216 C338.533888,18.1961216 337.657856,19.045376 337.597952,20.1056768 L337.587712,20.1056768 L337.587712,25.2198912 C332.153856,18.5227264 323.588096,15.742976 314.99776,15.742976 C295.47264,15.742976 279.644672,31.5834368 279.644672,51.1248384 C279.644672,70.667264 295.47264,86.508032 314.99776,86.508032 L314.99776,86.51008 C323.588096,86.51008 332.950016,83.174912 337.586688,77.033984 Z M315.032064,74.1248 C302.61504,74.1248 292.547584,63.82848 292.547584,51.1248896 C292.547584,38.423552 302.61504,28.126464 315.032064,28.126464 C327.450624,28.126464 337.516032,38.423552 337.516032,51.1248896 C337.516032,63.7014441 327.650926,73.9186329 315.403907,74.121719 L315.032064,74.1248 Z M227.203072,68.027904 C233.122816,72.132096 239.584768,74.125312 245.794304,74.125312 C247.014025,74.125312 248.242257,73.9948442 249.423637,73.7408829 L249.77659,73.6609967 C249.952308,73.6192082 250.126848,73.5746567 250.300022,73.5273659 L250.644493,73.4291387 C250.758674,73.3951835 250.872191,73.3600177 250.984992,73.3236484 L251.321184,73.2109367 C252.10035,72.9395506 252.841639,72.6095321 253.52606,72.2232736 L253.815846,72.0542979 C256.200795,70.6175895 257.825792,68.4678915 257.825792,65.714176 C257.825792,62.0054528 254.222351,59.9252558 249.585701,58.3822689 L249.046264,58.2065539 C248.955643,58.1776447 248.864676,58.1489187 248.773381,58.1203681 L248.221834,57.9511068 L248.221834,57.9511068 L247.663309,57.7856822 L247.663309,57.7856822 L247.098685,57.6237219 L247.098685,57.6237219 L246.242232,57.386462 L246.242232,57.386462 L245.37699,57.1549009 L245.37699,57.1549009 L244.214781,56.8528446 L244.214781,56.8528446 L241.31,56.1126906 L241.31,56.1126906 L240.16681,55.8148002 L240.16681,55.8148002 L239.322964,55.5879258 L239.322964,55.5879258 L238.768496,55.4343316 L238.768496,55.4343316 L238.221528,55.2784272 C238.13104,55.25223 238.040902,55.2259209 237.951131,55.1994923 L237.417058,55.0394239 C237.32883,55.0124861 237.241005,54.9854132 237.153603,54.9581974 L236.6344,54.7931269 C236.463119,54.7374907 236.293673,54.6812211 236.126208,54.624256 C227.751936,51.776512 220.539392,45.8893312 220.539392,36.3555328 C220.539392,21.767168 233.527808,15.7420032 245.650432,15.7420032 C253.331456,15.7420032 261.256704,18.2768128 266.394624,21.9079168 C267.366099,22.6445904 267.479354,23.4411589 267.383924,24.0098053 L267.360517,24.1280646 L267.360517,24.1280646 L267.332142,24.2387173 L267.332142,24.2387173 L267.300219,24.3411342 L267.300219,24.3411342 L267.266169,24.4346859 L267.266169,24.4346859 L267.231412,24.518743 L267.231412,24.518743 L267.181056,24.6256497 L267.181056,24.6256497 L267.137098,24.7076536 L267.137098,24.7076536 L267.086336,24.7902208 L267.086336,24.7902208 L262.181888,31.8005248 C262.151253,31.8443918 262.119347,31.8879273 262.086166,31.9308862 L261.982804,32.0577877 C261.429009,32.7019754 260.568918,33.1487428 259.397299,32.485382 L259.226535,32.3826482 L259.226535,32.3826482 L258.371772,31.8435969 L258.371772,31.8435969 L258.065447,31.6563531 L258.065447,31.6563531 L257.728393,31.4560652 L257.728393,31.4560652 L257.486788,31.3163907 L257.486788,31.3163907 L257.231779,31.1725648 C257.188166,31.1482845 257.143999,31.1238586 257.09928,31.0993009 L256.824356,30.9504826 L256.824356,30.9504826 L256.536282,30.799159 L256.536282,30.799159 L256.235158,30.6459885 L256.235158,30.6459885 L255.921088,30.4916296 L255.921088,30.4916296 L255.594171,30.3367406 L255.594171,30.3367406 L255.25451,30.18198 C255.139177,30.1304877 255.021737,30.0791265 254.902206,30.0280061 L254.537359,29.8754775 L254.537359,29.8754775 L254.160073,29.7250523 C251.923146,28.8549882 249.056411,28.1259008 245.650432,28.1259008 C238.25408,28.1259008 233.798656,31.54432 233.798656,35.7813248 C233.798656,38.1880347 235.097959,39.8132903 237.186511,41.0414626 L237.469617,41.2028996 C237.901158,41.4416266 238.363361,41.6651537 238.852147,41.8765557 L239.181898,42.0157278 C239.237498,42.038635 239.293415,42.0614009 239.349643,42.0840299 L239.690705,42.2181927 C239.748156,42.2402903 239.805908,42.2622594 239.863954,42.284104 L240.215722,42.4137131 L240.215722,42.4137131 L240.574292,42.5405395 L240.574292,42.5405395 L240.939395,42.6647856 C241.000775,42.6852895 241.062416,42.7056943 241.124312,42.7260043 L241.498711,42.8467596 L241.498711,42.8467596 L242.071214,43.0240669 L242.071214,43.0240669 L242.656,43.1973907 L242.656,43.1973907 L243.25216,43.3674145 L243.25216,43.3674145 L243.655471,43.4792678 L243.655471,43.4792678 L244.063166,43.5901606 L244.063166,43.5901606 L244.890632,43.8098743 L244.890632,43.8098743 L246.37184,44.1919488 L246.37184,44.1919488 L247.794445,44.5782987 L247.794445,44.5782987 L248.864939,44.8744334 L248.864939,44.8744334 L249.57903,45.0757933 C249.698028,45.1096491 249.817007,45.1436596 249.935953,45.1778346 L250.649135,45.3849411 C250.767897,45.4198149 250.886599,45.4548733 251.005226,45.4901265 L251.715989,45.7040622 L251.715989,45.7040622 L252.424302,45.9231524 C262.202589,48.9917692 271.085056,53.6780339 271.085056,65.714176 C271.085056,78.567936 259.071488,86.511104 245.794304,86.511104 C235.73248,86.511104 227.166208,83.64032 219.981312,78.36416 C219.077131,77.458432 219.100853,76.5919507 219.261303,76.0478994 L219.296191,75.9400306 L219.296191,75.9400306 L219.333424,75.8419205 L219.333424,75.8419205 L219.371445,75.7541264 L219.371445,75.7541264 L219.408696,75.6772056 L219.408696,75.6772056 L219.459724,75.5834311 L219.459724,75.5834311 L219.53024,75.473408 L219.53024,75.473408 L224.410624,68.498432 C225.246639,67.4002728 226.266736,67.5492946 226.894878,67.8499884 L227.007921,67.9078785 C227.043977,67.9275893 227.078361,67.9476252 227.110933,67.9677186 L227.203072,68.027904 L227.203072,68.027904 Z M193.111552,77.033984 L193.112576,77.042176 C193.422848,80.571904 196.246016,85.064192 201.137152,85.064192 L203.999232,85.064192 C205.108224,85.064192 206.017536,84.15488 206.017536,83.044864 L206.017536,20.1056768 L206.005248,20.1056768 C205.947392,19.045376 205.07136,18.1961216 203.999232,18.1961216 L195.131392,18.1961216 C194.059264,18.1961216 193.183232,19.045376 193.123328,20.1056768 L193.112576,20.1056768 L193.112576,25.2198912 C187.679744,18.5227264 179.113472,15.742976 170.523648,15.742976 C150.998528,15.742976 135.170048,31.5834368 135.170048,51.1248384 C135.170048,70.667264 150.998528,86.508032 170.523648,86.508032 L170.523648,86.51008 C179.113472,86.51008 188.47488,83.174912 193.111552,77.033984 Z M170.558464,74.1248 C158.140416,74.1248 148.07296,63.82848 148.07296,51.1248896 C148.07296,38.423552 158.140416,28.126464 170.558464,28.126464 C182.976,28.126464 193.04192,38.423552 193.04192,51.1248896 C193.04192,63.7014441 183.176312,73.9186329 170.930277,74.121719 L170.558464,74.1248 Z" fill="#0D0E10"/>
    <path d="M85.604864,53.531648 C72.464896,53.531648 61.813248,64.183808 61.813248,77.324288 C61.813248,90.464256 72.464896,101.116416 85.604864,101.116416 C98.744832,101.116416 109.39648,90.464256 109.39648,77.324288 C109.39648,64.183808 98.744832,53.531648 85.604864,53.531648 L85.604864,53.531648 Z M23.7917696,53.533696 C10.6520576,53.533696 0,64.183808 0,77.324288 C0,90.464256 10.6520576,101.116416 23.7917696,101.116416 C36.9320448,101.116416 47.5846144,90.464256 47.5846144,77.324288 C47.5846144,64.183808 36.9320448,53.533696 23.7917696,53.533696 L23.7917696,53.533696 Z M78.4896,23.7912576 C78.4896,36.9320448 67.837952,47.5851776 54.698496,47.5851776 C41.5580672,47.5851776 30.9065216,36.9320448 30.9065216,23.7912576 C30.9065216,10.6530816 41.5580672,0 54.698496,0 C67.837952,0 78.4896,10.6530816 78.4896,23.7912576 L78.4896,23.7912576 Z" fill="#F06A6A"/>
  </g>
</svg>

<svg width="512" height="102" xmlns="http://www.w3.org/2000/svg" preserveAspectRatio="xMidYMid"><path d="m499.094 77.034.001.008c.31 3.53 3.133 8.022 8.024 8.022h2.862c1.11 0 2.019-.91 2.019-2.02V20.107h-.013a2.018 2.018 0 0 0-2.006-1.91h-8.868a2.02 2.02 0 0 0-2.007 1.91h-.011v5.114c-5.433-6.697-14-9.477-22.589-9.477-19.526 0-35.354 15.84-35.354 35.382 0 19.542 15.828 35.383 35.354 35.383v.002c8.59 0 17.95-3.335 22.588-9.476Zm-22.554-2.91c-12.418 0-22.486-10.296-22.486-23 0-12.7 10.068-22.998 22.486-22.998 12.418 0 22.484 10.298 22.484 22.999 0 12.576-9.866 22.794-22.112 22.997l-.372.003Zm-46.599 5.083-.004-32.568h.001c0-18.359-11.573-30.744-30.028-30.744-8.81 0-16.03 5.098-18.581 9.477l-.043-.25-.047-.252a13.3 13.3 0 0 0-.026-.125l-.055-.251-.06-.25-.065-.25-.072-.248a10.39 10.39 0 0 0-.16-.492l-.09-.243c-.98-2.538-3.055-4.662-7.384-4.662h-2.87c-1.111 0-2.019.91-2.019 2.02v62.944h.012a2.02 2.02 0 0 0 2.007 1.91h8.868c.136 0 .269-.017.397-.042l.058-.015.113-.036.133-.038a.813.813 0 0 0 .064-.023l.077-.036.255-.143a1.64 1.64 0 0 0 .169-.126l.08-.07c.012-.013.028-.021.04-.033a2.002 2.002 0 0 0 .62-1.348h.011v-37.18c0-9.86 7.988-17.853 17.841-17.853 9.853 0 17.84 7.994 17.84 17.854l.009 31.077.002-.011.004.085v6.028h.012a2.02 2.02 0 0 0 2.007 1.91h8.868c.136 0 .269-.017.397-.042.053-.01.101-.03.152-.045l.146-.042.071-.025c.073-.03.139-.072.207-.11.042-.024.086-.042.127-.069.081-.053.156-.118.23-.183l.058-.048c.055-.054.107-.11.156-.17l.086-.11a2 2 0 0 0 .364-.93l.013-.136h.011v-4.105l-.002-.001Zm-92.354-2.173v.008c.311 3.53 3.134 8.022 8.025 8.022h2.862c1.11 0 2.017-.91 2.017-2.02V20.107h-.011a2.018 2.018 0 0 0-2.006-1.91h-8.868a2.02 2.02 0 0 0-2.008 1.91h-.01v5.114c-5.434-6.697-14-9.477-22.59-9.477-19.525 0-35.353 15.84-35.353 35.382 0 19.542 15.828 35.383 35.353 35.383v.002c8.59 0 17.952-3.335 22.589-9.476Zm-22.555-2.91c-12.417 0-22.484-10.296-22.484-23 0-12.7 10.067-22.998 22.484-22.998 12.419 0 22.484 10.298 22.484 22.999 0 12.576-9.865 22.794-22.112 22.997l-.372.003Zm-87.829-6.096c5.92 4.104 12.382 6.097 18.591 6.097 1.22 0 2.448-.13 3.63-.384l.353-.08c.175-.042.35-.086.523-.134l.344-.098c.115-.034.228-.069.341-.105l.336-.113c.78-.271 1.52-.601 2.205-.988l.29-.169c2.385-1.436 4.01-3.586 4.01-6.34 0-3.709-3.604-5.789-8.24-7.332l-.54-.175c-.09-.03-.181-.058-.273-.087l-.551-.169-.559-.165-.564-.162-.857-.238-.865-.231-1.162-.302-2.905-.74-1.143-.298-.844-.227-.555-.154-.546-.156-.27-.079-.535-.16a49.773 49.773 0 0 1-.263-.08l-.52-.166c-.17-.056-.34-.112-.508-.169-8.374-2.847-15.587-8.735-15.587-18.268 0-14.589 12.989-20.614 25.111-20.614 7.681 0 15.607 2.535 20.745 6.166.971.737 1.084 1.533.989 2.102l-.023.118-.029.11-.032.103-.034.094-.035.084-.05.107-.044.082-.05.082-4.905 7.01c-.03.044-.063.088-.096.13l-.103.128c-.554.644-1.414 1.09-2.586.427l-.17-.102-.855-.54-.307-.187-.337-.2-.241-.14-.255-.143a26.13 26.13 0 0 0-.133-.074l-.275-.149-.288-.15-.3-.154-.315-.154-.327-.155-.34-.155a24.37 24.37 0 0 0-.352-.154l-.365-.153-.377-.15a23.366 23.366 0 0 0-8.51-1.6c-7.396 0-11.851 3.42-11.851 7.656 0 2.407 1.299 4.032 3.388 5.26l.283.162c.431.239.893.462 1.382.674l.33.139.168.068.34.134.174.066.352.13.358.127.365.124.185.061.375.12.572.178.585.173.596.17.403.112.408.111.828.22 1.48.382 1.423.386 1.07.296.715.202.357.102.713.207.356.105.711.214.708.22c9.779 3.068 18.661 7.754 18.661 19.79 0 12.854-12.014 20.797-25.29 20.797-10.063 0-18.629-2.87-25.814-8.147-.904-.906-.88-1.772-.72-2.316l.035-.108.037-.098.038-.088.038-.077.05-.094.071-.11 4.88-6.975c.837-1.098 1.857-.949 2.485-.648l.113.058.103.06.092.06Zm-34.091 9.006v.008c.31 3.53 3.134 8.022 8.025 8.022H204c1.11 0 2.019-.91 2.019-2.02V20.107h-.013a2.018 2.018 0 0 0-2.006-1.91h-8.868a2.02 2.02 0 0 0-2.008 1.91h-.01v5.114c-5.433-6.697-14-9.477-22.59-9.477-19.524 0-35.353 15.84-35.353 35.382 0 19.542 15.829 35.383 35.354 35.383v.002c8.59 0 17.95-3.335 22.588-9.476Zm-22.554-2.91c-12.418 0-22.485-10.296-22.485-23 0-12.7 10.067-22.998 22.485-22.998s22.484 10.298 22.484 22.999c0 12.576-9.866 22.794-22.112 22.997l-.372.003Z" fill="#0D0E10"/><path d="M85.605 53.532c-13.14 0-23.792 10.652-23.792 23.792 0 13.14 10.652 23.792 23.792 23.792 13.14 0 23.791-10.652 23.791-23.792 0-13.14-10.651-23.792-23.791-23.792Zm-61.813.002C10.652 53.534 0 64.184 0 77.324c0 13.14 10.652 23.792 23.792 23.792 13.14 0 23.793-10.652 23.793-23.792 0-13.14-10.653-23.79-23.793-23.79ZM78.49 23.79c0 13.141-10.652 23.794-23.792 23.794-13.14 0-23.791-10.653-23.791-23.794C30.907 10.653 41.558 0 54.698 0S78.49 10.653 78.49 23.791Z" fill="#F06A6A"/></svg>
